X:1
T:Title
%%score { ( 1 4 ) | ( 2 3 ) }
L:1/8
M:12/8
K:G
V:1 treble nm="Grand Piano"
V:4 treble 
V:2 bass 
V:3 bass 
V:1
 z6 z3 z2[Q:1/4=87] D | [DB][^C_B][D=B] [Gd]2 [DB] .[=CEA]2 [CEA] [EAc]2 [CEA] | %2
[M:11/8] D-[DF]G A2 DB- B3 z |[M:1/8] D | %4
[M:6/4] [DB][^C_B][D=B] [Gd]2 [DB] .[=CEA]2 [CEA] [EAc]2 [CEA] | %5
[M:11/8] [B,DG][A,DF][B,DG] [DFB]2 [CFA][B,G]- [B,G]3 z |[M:1/8] [A,FA] | %7
[M:6/4] .[A,FA]2 [F^c] [Fd]2 [Fe] [Gd]2 [Gc] [Gc]2 [Gc] |[M:11/8] .^c2 z z z z z z z z2 | %9
[M:1/8] [FA] |[M:13/8] .d3 z z z z z z z z z2 | z z z z z2 d-d-d- d3 z |[M:6/4] z2 .d3 B z6 | %13
[M:11/8] B2 B [CA]2 [B,G][CE][B,D]- [B,D]3 |[M:1/8] [B,D] |[M:6/4] [CE] [Ec]2 [Ec]2 E D B2 A2 G | %16
 z6 z2 z [Fd]3 | z2 .d3 B z6 |[M:11/8] [Ec]2 [EG] [Ec]2 [Ge]ed- d3 |[M:1/8] d | %20
[M:6/4] [Fd] [Fd]2 [Fe]2 [Fc] [GB][GB][GB] [Ac]2 [CFA] |[M:11/8] G-G-G-G-G-G- G3 z2 |] %22
V:2
 z6 z3 z2 D, | [G,,G,]2 [G,,G,] [G,B,]2 G, z ^GC, A,,2 C, | %2
[M:11/8] z A,[D,B,D] [D,F,D]2 [F,A,][G,D]- [G,D]3 z |[M:1/8] D, | %4
[M:6/4] [G,,G,]2 [G,,G,] [G,B,]2 G, z ^GC, A,,2 C, |[M:11/8] D,D,D, D,2 D,G,- G,3 z |[M:1/8] D, | %7
[M:6/4] z[K:treble] B[K:bass][D,A,] [D,A,]2 [D,A,] [E,A,]2 [E,A,] [A,,A,]2 [A,,G,] | %8
[M:11/8] [A,,A,]2 [A,,A,] [A,,A,]2 [^C,A,][D,A,]- [D,A,]3 z |[M:1/8] [D,A,] | %10
[M:13/8] [D,A,]2 [D,A,] [D,A,]2 [D,D][K:treble] [G,DG]2 [G,DG] [G,B,G]3 [^G,B,E] | %11
 [A,E]2 [A,^CG] [A,B,G]2[K:bass] [A,,A,] A,2 B, =C3 z | %12
[M:6/4][K:treble] z2 .[G,B,G]3 [G,DG][K:bass] z6 | %13
[M:11/8] [G,D]2 [G,D] [G,,D,]2 [G,,D,][G,,G,][G,,G,]- [G,,G,]3 |[M:1/8] [G,,G,] | %15
[M:6/4] [C,G,] [C,G,]2 [C,G,]2 [C,G,C] [G,B,] [G,D]2 [E,G,^C]2 [E,G,C] | %16
 [D,F,D]3 [A,,G,]2 [A,,G,] [D,F,]3 .[D,A,]3 | z2 .[G,B,G]3 [G,DG][K:bass] z6 | %18
[M:11/8] [C,G,]2 [C,C] [C,C]2 [C,C][K:treble][G,CG][G,B,G]- [G,B,G]3 |[M:1/8] [G,B,G] | %20
[M:6/4][K:bass] [D,A,] [D,A,]2 [D,C]2 [D,A,] [D,D][D,D][D,D] [D,D]2 D, | %21
[M:11/8] G,,2 G,,G,,>G,,G,, G,,3 z2 |] %22
V:3
 x12 | z6 .C,3 z3 |[M:11/8] D,2 z z z z z z z z2 |[M:1/8] x |[M:6/4] z6 .C,6 |[M:11/8] x11 | %6
[M:1/8] x |[M:6/4] .D,6[K:treble][K:bass] z6 |[M:11/8] x11 |[M:1/8] x |[M:13/8] x6[K:treble] x7 | %11
 z z z z z2[K:bass] D,-D,-D,- D,3 z | %12
[M:6/4][K:treble] (4:3:3[G,B,G]2 .[G,CG]2 [G,B,G]4[K:bass] [G,CD][G,B,D]- [G,B,D]3 [G,A,D] | %13
[M:11/8] x11 |[M:1/8] x |[M:6/4] x12 | x12 | %17
 (4:3:3[G,B,G]2 .[G,CG]2 [G,B,G]4[K:bass] [G,CD][G,B,D]- [G,B,D]3 G, |[M:11/8] x6[K:treble] x5 | %19
[M:1/8] x |[M:6/4][K:bass] x12 |[M:11/8] x11 |] %22
V:4
 x12 | x12 |[M:11/8] .[B,G]2 z z z z z z z z2 |[M:1/8] x |[M:6/4] x12 |[M:11/8] x11 |[M:1/8] x | %7
[M:6/4] x12 |[M:11/8] G-[Gd][G^c] [GB]2 [EG][DF]- [DF]3 z |[M:1/8] x | %10
[M:13/8] F-[Fe][Fd][DF][EG][FA] ^c2 B e3 d | ^c2 A B2 [Gc] F2 G A3 z | %12
[M:6/4] (4:3:3d2 .e2 d4 AG- G3 A |[M:11/8] x11 |[M:1/8] x |[M:6/4] x12 | %16
 A3 [^CA]2 [CB] [DA]4 z =C | (4:3:3d2 .e2 d4 AG- G3 G |[M:11/8] x11 |[M:1/8] x |[M:6/4] x12 | %21
[M:11/8] B,2 [B,D][CE]>[CE][CE] [B,D]3 z2 |] %22

